X:135
T: Hut in the Bog (A)
S: Treoir
Z: B.Black
M: 4/4
L: 1/8
R: reel
K: D
A |dcdA BdAF |E2 eg fdec |dcdA BdAF |GBAG FD D2 |
dcdA BdAF | E2 eg fdec | defd cdec |dBAG FD D2 ||
fddc dfaf | gfga bgeg | fddc dfaf |gbeg fdde |
fddc dfaf | gfga bgef | gagf gbaf |(3gag fg egfe ||
